icons/webmin.svg

<?xml version="1.0" encoding="UTF-8"?>
<svg width="256px" height="281px" viewBox="0 0 256 281" version="1.1" xmlns="http://www.w3.org/2000/svg" xmlns:xlink="http://www.w3.org/1999/xlink" preserveAspectRatio="xMidYMid">
    <g fill-opacity="0.94">
        <path d="M233.858448,123.628491 C224.931398,116.242985 217.841621,110.211434 208.437873,102.48606 C206.261836,90.1956416 204.137662,78.1203998 202.023418,66.3110936 C198.442667,46.1220573 180.969264,24.8781064 162.519292,19.0109712 C154.06894,16.3129938 146.202322,17.1527324 138.68771,21.6283954 C129.575278,11.9774711 120.047942,5.48356654 109.664316,2.16323367 C85.0205821,-5.72214308 64.8138904,8.55120541 67.0793086,35.1944215 C68.3725722,50.0316417 69.6481803,66.1334354 70.7086123,78.9093789 C56.7607866,84.6981679 42.3936434,90.7926174 30.5865441,95.7913239 C15.8894642,102.060121 5.73977273,114.629716 1.8290849,129.559628 C-2.1533283,144.799614 0.235678234,162.445158 10.2926785,178.06915 C19.2329699,192.064425 32.022155,201.555347 48.3876773,206.699711 C47.0326196,225.149683 50.3430213,241.08706 58.6124046,254.149905 C67.958772,269.00147 81.7808024,277.900933 95.8864238,280.316423 C109.753696,282.696602 123.752282,278.802466 134.453707,268.630705 C145.927559,257.558515 156.779055,247.113094 167.122957,237.206166 C179.37365,244.569602 191.188474,251.673724 202.679981,258.595774 C221.469821,269.80038 240.655806,257.615895 245.185539,233.83728 C247.079089,223.925938 246.244867,212.849334 242.713772,200.324981 C249.401887,196.205737 253.556441,189.773627 255.246953,180.767128 C258.818876,161.641834 249.353334,136.486092 233.857344,123.626285 L233.858448,123.628491 Z M236.988984,166.562194 C235.969381,171.162549 232.997743,173.913493 229.281266,173.475416 C226.225765,173.109065 223.670135,171.868768 218.460666,168.036426 C209.86907,161.599902 201.093196,155.004478 192.01166,148.31526 C191.208336,147.754699 190.316735,147.132343 189.500169,146.536471 C181.95135,140.969479 175.354823,142.033221 172.834504,149.649352 C170.22039,157.445348 173.893832,166.606333 181.668862,172.058564 C182.498669,172.627953 183.452065,173.303275 184.264217,173.899148 C193.738587,180.53871 203.062885,187.014959 212.134489,193.328998 C215.980072,196.012631 218.844673,198.525226 220.734912,200.798368 C224.915949,205.584105 226.90219,213.459551 225.463269,220.034009 C223.909587,226.9693 219.437235,230.585362 214.007072,229.349479 C211.260543,228.766848 209.194852,227.650139 204.263457,224.457809 C194.70081,218.259633 184.868917,211.831937 174.723639,205.298307 C173.792313,204.702435 172.860987,204.084493 171.95504,203.435655 C168.753882,201.484725 165.673001,200.596434 162.952955,200.702366 L162.939713,200.702366 C159.901868,200.502639 156.719468,201.602796 153.668381,204.049182 C152.820919,204.746574 151.964628,205.413068 151.174545,206.163426 C141.709004,213.951697 131.894766,222.259702 121.493484,230.996955 C115.873526,235.694415 113.343275,237.526171 109.591487,238.847021 C102.03384,241.733692 93.6805929,238.493912 88.4534687,230.18039 C83.5309014,222.087561 83.7427671,211.58476 88.8418891,204.962853 C91.0090987,202.017699 94.6737134,198.649917 99.7242828,195.069166 C110.730265,187.197031 121.15803,179.785042 131.060545,172.677609 C131.960974,172.064082 132.826093,171.459382 133.727625,170.822681 C141.23672,165.489624 142.676744,156.059393 137.378998,147.270277 C132.218082,138.502126 123.683867,135.840563 115.583314,140.732233 C114.669643,141.283967 113.760386,141.835701 112.850025,142.440401 C102.369294,148.863683 91.3765533,155.650007 79.7879406,162.797164 C72.3141571,167.304828 68.3670548,168.761404 62.7868211,169.017409 C55.8912544,169.374932 48.6723719,165.127687 44.4703687,158.439572 C39.7111146,150.987858 39.5522153,141.729768 44.1216731,135.986221 C46.6905448,132.608508 49.4414885,130.560473 57.335693,126.511851 C69.5643168,120.18126 81.2908629,114.230261 92.4160194,108.645614 C93.3650012,108.067397 94.3228108,107.670149 95.308207,107.189037 C95.9879428,106.853583 96.6147122,106.456335 97.1664458,106.054672 C102.146393,103.856566 104.569607,98.3601956 103.792766,90.9162057 C103.66035,89.6670808 103.572073,88.4620946 103.364621,87.2692465 C102.009563,74.0552266 100.66223,61.1071422 99.2542058,48.4503732 C98.4376401,40.7161714 98.5170897,37.9961247 99.4969686,34.9273824 C101.059478,30.0533677 106.577918,27.9302967 112.768369,29.5987392 C118.2206,31.0685575 123.438897,35.3422861 126.282532,40.5208577 C128.604227,44.8298972 129.673487,48.3797513 130.613641,55.7211187 C132.154081,67.7731877 133.739763,80.0073288 135.337584,92.5272678 C135.496483,93.6704599 135.655382,94.7959964 135.796626,95.9447058 C137.142856,106.354816 143.332204,113.841841 151.354411,114.902273 C159.084199,115.930704 163.185786,109.873773 161.777762,100.143399 C161.64976,99.0752423 161.486447,97.9497058 161.340789,96.9025154 C159.592897,84.9254822 157.865971,73.1901083 156.179873,61.7030145 C155.442757,56.7363085 155.186752,52.9304501 155.588414,50.476339 C156.188701,45.0285213 160.528637,42.1893002 166.077974,43.6867052 C171.680277,45.2227316 176.92947,50.3880616 179.353788,56.5420983 C180.594085,59.6549793 181.15906,62.0649517 182.117973,67.8261541 C183.954143,78.8453778 185.553067,89.9043263 187.433375,101.342867 L188.091041,104.52637 C188.673672,107.343522 188.907607,107.904084 189.415202,109.431282 L189.291614,108.928101 L189.260717,108.848651 L189.220992,108.769202 L189.203336,108.61913 L189.203336,108.595958 L189.256303,108.582716 C190.227354,112.918239 193.084231,117.196381 197.490375,120.65244 C198.258388,121.265968 199.114679,121.86184 199.887106,122.523921 C208.434563,129.238519 216.773465,135.865943 224.963399,142.27157 C229.89038,146.143637 231.664755,147.940081 233.612375,150.668956 C236.769394,155.110411 238.093555,161.591074 236.994502,166.562194 L236.988984,166.562194 Z" fill="#97BEEF" fill-rule="nonzero"></path>
    </g>
</svg>

<svg width="256" height="281" xmlns="http://www.w3.org/2000/svg" preserveAspectRatio="xMidYMid"><path d="M233.858 123.628c-8.927-7.385-16.016-13.417-25.42-21.142-2.176-12.29-4.3-24.366-6.415-36.175-3.58-20.189-21.054-41.433-39.504-47.3-8.45-2.698-16.317-1.858-23.831 2.617-9.113-9.65-18.64-16.144-29.024-19.465-24.643-7.885-44.85 6.388-42.585 33.031 1.294 14.838 2.57 30.94 3.63 43.715C56.76 84.7 42.394 90.793 30.587 95.791 15.889 102.061 5.74 114.63 1.829 129.56c-3.982 15.24-1.593 32.885 8.464 48.51 8.94 13.994 21.73 23.485 38.095 28.63-1.355 18.45 1.955 34.387 10.224 47.45C67.96 269 81.781 277.9 95.886 280.316c13.868 2.38 27.866-1.514 38.568-11.685a12118.852 12118.852 0 0132.669-31.425c12.25 7.364 24.065 14.468 35.557 21.39 18.79 11.204 37.976-.98 42.506-24.759 1.893-9.911 1.059-20.988-2.472-33.512 6.688-4.12 10.842-10.551 12.533-19.558 3.572-19.125-5.894-44.28-21.39-57.14l.001.001zm3.131 42.934c-1.02 4.6-3.991 7.351-7.708 6.913-3.055-.366-5.61-1.606-10.82-5.439-8.592-6.436-17.368-13.032-26.45-19.72-.803-.561-1.694-1.184-2.51-1.78-7.55-5.567-14.146-4.503-16.666 3.113-2.615 7.796 1.059 16.957 8.834 22.41.83.569 1.783 1.244 2.595 1.84 9.475 6.64 18.799 13.116 27.87 19.43 3.846 2.684 6.71 5.196 8.6 7.47 4.182 4.785 6.168 12.66 4.73 19.235-1.554 6.935-6.027 10.551-11.457 9.315-2.746-.582-4.812-1.699-9.744-4.891-9.562-6.198-19.394-12.626-29.54-19.16a63.879 63.879 0 01-2.768-1.862c-3.201-1.951-6.282-2.84-9.002-2.734h-.013c-3.038-.2-6.22.9-9.272 3.347-.847.698-1.703 1.364-2.493 2.114-9.466 7.789-19.28 16.097-29.682 24.834-5.62 4.697-8.15 6.53-11.902 7.85-7.557 2.887-15.91-.353-21.138-8.667-4.922-8.092-4.71-18.595.389-25.217 2.167-2.945 5.832-6.313 10.882-9.894 11.006-7.872 21.434-15.284 31.337-22.391.9-.614 1.765-1.219 2.667-1.855 7.509-5.333 8.949-14.764 3.651-23.553-5.16-8.768-13.695-11.43-21.796-6.538a74.205 74.205 0 00-2.733 1.708c-10.48 6.424-21.473 13.21-33.062 20.357-7.474 4.508-11.42 5.964-17.001 6.22-6.896.358-14.115-3.89-18.317-10.577-4.759-7.452-4.918-16.71-.348-22.454 2.569-3.377 5.32-5.426 13.214-9.474a3149.652 3149.652 0 0135.08-17.866c.949-.579 1.907-.976 2.892-1.457.68-.335 1.307-.733 1.858-1.134 4.98-2.198 7.404-7.695 6.627-15.139-.133-1.249-.22-2.454-.428-3.647-1.355-13.214-2.703-26.162-4.11-38.819-.817-7.734-.738-10.454.242-13.523 1.562-4.874 7.08-6.997 13.271-5.328 5.453 1.47 10.67 5.743 13.515 10.922 2.321 4.309 3.39 7.859 4.33 15.2 1.541 12.052 3.127 24.286 4.725 36.806.158 1.143.317 2.269.459 3.418 1.346 10.41 7.535 17.897 15.557 18.957 7.73 1.029 11.832-5.028 10.424-14.759-.128-1.068-.292-2.193-.437-3.24-1.748-11.978-3.475-23.713-5.161-35.2-.737-4.967-.993-8.773-.592-11.227.6-5.447 4.94-8.287 10.49-6.79 5.602 1.537 10.851 6.702 13.276 12.856 1.24 3.113 1.805 5.523 2.764 11.284 1.836 11.02 3.435 22.078 5.315 33.517l.658 3.183c.583 2.818.817 3.378 1.324 4.905l-.123-.503-.031-.08-.04-.079-.018-.15v-.023l.053-.013c.971 4.335 3.828 8.613 8.234 12.07.768.613 1.625 1.209 2.397 1.87 8.548 6.716 16.886 13.343 25.076 19.749 4.927 3.872 6.702 5.668 8.65 8.397 3.156 4.441 4.48 10.922 3.382 15.893h-.006z" fill="#97BEEF" fill-opacity=".94"/></svg>
